X: 3
T:Good Fellow (#183), The
M:9/8
L:1/8
S:Sergt. James O'Neill manuscript
K:D
A|:DED D2 d F3|DED D2 d GEc|DED D2 d F3|EFE cBA GEC:|
|:AcA GBG F3|AcA GBG AFD|AcA GBG F3|EFE cBA GEC:|
|;D2 a ged c3|d2 e f2 a gec|faf ged c3|cAG FAF GEC:|
|:DED dAG F3|DED dAF GEC|DED dAG F3|EFE cBA GEC:||

